[MAKE SURE MACHINE IS CLEAR TO MOVE TO Y10 AND FROM X0 TO X40]
[THEN HIT ENTER]
G4
G90
G54
G53

G92

G0 Y10
G0 X0
G0 X45
G0 X0
G0 X36
G0 X0
G0 X24
G0 X0
G0 X12
G0 X0
G0 X6
G0 X0
G0 X3
G0 X0
G0 X1.5
G0 X0
G0 X.75
G0 X0
G0 X.375
G0 X0
G0 X.75
G0 X0
G0 X1.5
G0 X0
G0 X3
G0 X0
G0 X6
G0 X0
G0 X12
G0 X0
G0 X24
G0 X0
G0 X36
G0 X0
G0 X45
G0 X0