[MAKE SURE MACHINE IS CLEAR TO RUN TO X30 AND FROM Y0 TO Y48]
[THEN HIT ENTER]
G4
G90
G54
G53

G92

G0 X0 Y0
G0 Y48 X45
G0 Y0 X0
G0 Y36 x36
G0 Y0 X0
G0 Y24 X24
G0 Y0 X0
G0 Y12 X12
G0 Y0 X0
G0 Y6 X6
G0 Y0 X0
G0 Y3 X3
G0 Y0 X0
G0 Y1.5 X1.5
G0 Y0 X0
G0 Y.75 X.75
G0 Y0 X0
G0 Y.375 X.375
G0 Y0 X45
G0 Y.75 X0
G0 Y0 X36
G0 Y1.5 X0
G0 Y0 X24
G0 Y3 X0
G0 Y0 X12
G0 Y6 X0
G0 Y0 X6
G0 Y12 X0
G0 Y0 X3
G0 Y24 X0
G0 Y0 X1.5
G0 Y36 X0
G0 Y0 X.75
G0 Y48 X0
G0 Y0 X.375