[MAKE SURE MACHINE IS CLEAR TO RUN TO X22.5 AND FROM Y0 TO Y48]
[THEN HIT ENTER]
G4
G90
G54
G53

G92

G0 X22.5
G0 Y0
G0 Y48
G0 Y0
G0 Y36
G0 Y0
G0 Y24
G0 Y0
G0 Y12
G0 Y0
G0 Y6
G0 Y0
G0 Y3
G0 Y0
G0 Y1.5
G0 Y0
G0 Y.75
G0 Y0
G0 Y.375
G0 Y0
G0 Y.75
G0 Y0
G0 Y1.5
G0 Y0
G0 Y3
G0 Y0
G0 Y6
G0 Y0
G0 Y12
G0 Y0
G0 Y24
G0 Y0
G0 Y36
G0 Y0
G0 Y48
G0 Y0